Simply-Green-Circles/scalable/actions/edit-cut.svg

<svg xmlns="http://www.w3.org/2000/svg" viewBox="0 0 24 24"><path fill="#2ca02c" d="M7.64 14.36A4 4 0 0 0 6 14a4 4 0 1 0 3.64 2.36L12 14l2.36 2.36A4 4 0 1 0 22 18a4 4 0 0 0-5.64-3.64L14 12l7-7V2h-1zM8 18a2 2 0 1 1-4 0 2 2 0 0 1 4 0zm12 0a2 2 0 1 1-4 0 2 2 0 0 1 4 0zm-7.5-6c0 .28-.23.5-.5.5s-.5-.23-.5-.5.23-.5.5-.5.5.23.5.5zM3 5l6 6 2-2-7-7H3z"/></svg>

<?xml version="1.0" encoding="UTF-8" standalone="no"?>
<svg
   xmlns:dc="http://purl.org/dc/elements/1.1/"
   xmlns:cc="http://creativecommons.org/ns#"
   xmlns:rdf="http://www.w3.org/1999/02/22-rdf-syntax-ns#"
   xmlns:svg="http://www.w3.org/2000/svg"
   xmlns="http://www.w3.org/2000/svg"
   xmlns:sodipodi="http://sodipodi.sourceforge.net/DTD/sodipodi-0.dtd"
   xmlns:inkscape="http://www.inkscape.org/namespaces/inkscape"
   viewBox="0 0 24 24"
   version="1.1"
   id="svg4"
   sodipodi:docname="edit-cut.svg"
   inkscape:version="0.92.4 (5da689c313, 2019-01-14)">
  <metadata
     id="metadata10">
    <rdf:RDF>
      <cc:Work
         rdf:about="">
        <dc:format>image/svg+xml</dc:format>
        <dc:type
           rdf:resource="http://purl.org/dc/dcmitype/StillImage" />
        <dc:title></dc:title>
      </cc:Work>
    </rdf:RDF>
  </metadata>
  <defs
     id="defs8" />
  <sodipodi:namedview
     pagecolor="#ffffff"
     bordercolor="#666666"
     borderopacity="1"
     objecttolerance="10"
     gridtolerance="10"
     guidetolerance="10"
     inkscape:pageopacity="0"
     inkscape:pageshadow="2"
     inkscape:window-width="1078"
     inkscape:window-height="480"
     id="namedview6"
     showgrid="false"
     inkscape:zoom="9.8333333"
     inkscape:cx="-0.81355932"
     inkscape:cy="12"
     inkscape:window-x="0"
     inkscape:window-y="28"
     inkscape:window-maximized="0"
     inkscape:current-layer="svg4" />
  <path
     d="M 7.64,14.36 A 4,4 0 0 0 6,14 4,4 0 1 0 9.64,16.36 L 12,14 14.36,16.36 A 4,4 0 1 0 22,18 4,4 0 0 0 16.36,14.36 L 14,12 21,5 V 2 H 20 Z M 8,18 a 2,2 0 1 1 -4,0 2,2 0 0 1 4,0 z m 12,0 a 2,2 0 1 1 -4,0 2,2 0 0 1 4,0 z m -7.5,-6 c 0,0.28 -0.23,0.5 -0.5,0.5 -0.27,0 -0.5,-0.23 -0.5,-0.5 0,-0.27 0.23,-0.5 0.5,-0.5 0.27,0 0.5,0.23 0.5,0.5 z M 3,5 9,11 11,9 4,2 H 3 Z"
     id="path2"
     inkscape:connector-curvature="0"
     style="fill:#2ca02c" />
</svg>
